Origami/64x64/apps/cisco-anyconnect.svg

<svg width="64" height="64" version="1" xmlns="http://www.w3.org/2000/svg">
 <path d="m32 5c-15.512 0-28 12.488-28 28s12.488 28 28 28 28-12.488 28-28-12.488-28-28-28z" style="opacity:.2"/>
 <path d="m32 4c-15.512 0-28 12.488-28 28s12.488 28 28 28 28-12.488 28-28-12.488-28-28-28z" style="fill:#cccccc"/>
 <path d="M 24,12 A 28,28 0 0 0 8.5664062,16.660156 C 5.6860288,21.062724 4,26.324008 4,32 c 0,1.463092 0.145124,2.887716 0.359375,4.289062 A 20,20 0 0 1 24,20 20,20 0 0 1 44,40 20,20 0 0 1 27.710938,59.640624 C 29.112284,59.854876 30.536908,60 32,60 37.679118,60 42.94362,58.312984 47.347656,55.429688 A 28,28 0 0 0 52,40 28,28 0 0 0 24,12 Z" style="fill:#318bcf"/>
 <path d="m32.417968 5.03125a28 28 0 0 0 -8.417968 19.980468 28 28 0 0 0 25.5 27.859376c2.883828-2.307032 5.303232-5.163994 7.085938-8.429688a20 20 0 0 1 -4.585938 0.570312 20 20 0 0 1 -20 -20 20 20 0 0 1 10.90625 -17.808593c-3.227102-1.358741-6.769188-2.1173926-10.488282-2.171875z" style="opacity:.2"/>
 <path d="M 32.417968,4.0195312 A 28,28 0 0 0 24,24 28,28 0 0 0 51.628906,51.988282 c 2.551942,-2.506002 4.61957,-5.498256 6.0625,-8.832032 A 20,20 0 0 1 52,44 20,20 0 0 1 32,24 20,20 0 0 1 42.90625,6.1914062 C 39.679148,4.8326652 36.137062,4.0740136 32.417968,4.0195312 Z" style="fill:#7bc450"/>
 <path d="M 32 4 C 16.488 4 4 16.488 4 32 C 4 32.11345 4.0112805 32.224113 4.0175781 32.335938 C 4.3691213 17.134181 16.710728 5 32 5 C 47.289272 5 59.630879 17.134181 59.982422 32.335938 C 59.98872 32.224113 60 32.11345 60 32 C 60 16.488 47.512 4 32 4 z" style="fill:#ffffff;opacity:.1"/>
</svg>

<svg xmlns="http://www.w3.org/2000/svg" width="64" height="64" version="1">
 <path style="opacity:0.2" d="M 32,5 C 16.488,5 4,17.488 4,33 4,48.512 16.488,61 32,61 47.512,61 60,48.512 60,33 60,17.488 47.512,5 32,5 Z"/>
 <path style="fill:#cccccc" d="M 32,4 C 16.488,4 4,16.488 4,32 4,47.512 16.488,60 32,60 47.512,60 60,47.512 60,32 60,16.488 47.512,4 32,4 Z"/>
 <path style="fill:#318bcf" d="M 24,12 A 28,28 0 0 0 8.5664062,16.660156 C 5.6860288,21.062724 4,26.324008 4,32 c 0,1.463092 0.145124,2.887716 0.359375,4.289062 A 20,20 0 0 1 24,20 20,20 0 0 1 44,40 20,20 0 0 1 27.710938,59.640624 C 29.112284,59.854876 30.536908,60 32,60 37.679118,60 42.94362,58.312984 47.347656,55.429688 A 28,28 0 0 0 52,40 28,28 0 0 0 24,12 Z"/>
 <path style="opacity:0.2" d="M 32.417968,5.03125 A 28,28 0 0 0 24,25.011718 28,28 0 0 0 49.5,52.871094 c 2.883828,-2.307032 5.303232,-5.163994 7.085938,-8.429688 A 20,20 0 0 1 52,45.011718 a 20,20 0 0 1 -20,-20 A 20,20 0 0 1 42.90625,7.203125 C 39.679148,5.844384 36.137062,5.0857324 32.417968,5.03125 Z"/>
 <path style="fill:#7bc450" d="M 32.417968,4.0195312 A 28,28 0 0 0 24,24 28,28 0 0 0 51.628906,51.988282 c 2.551942,-2.506002 4.61957,-5.498256 6.0625,-8.832032 A 20,20 0 0 1 52,44 20,20 0 0 1 32,24 20,20 0 0 1 42.90625,6.1914062 C 39.679148,4.8326652 36.137062,4.0740136 32.417968,4.0195312 Z"/>
 <path style="opacity:0.1;fill:#ffffff" d="M 32 4 C 16.488 4 4 16.488 4 32 C 4 32.11345 4.0112805 32.224113 4.0175781 32.335938 C 4.3691213 17.134181 16.710728 5 32 5 C 47.289272 5 59.630879 17.134181 59.982422 32.335938 C 59.98872 32.224113 60 32.11345 60 32 C 60 16.488 47.512 4 32 4 z"/>
</svg>
